!!!OTL: Die Mordeltern Es waren einmal zwei Bauernsoehn',
!!!ARE: Europa, Mitteleuropa, Deutschland / France, Elsass
!!!YOR: 4, S. 308
!!    1940 gedruckt (geplant)
!!!SCT: Q0085N
!!!YEM: Copyright 1995, estate of Helmut Schaffrath.
**kern
*ICvox
*Ivox
*M3/4
*k[f#]
*G:
{8d
16d
16e
8f#
=1
4g
4b
8.f#
16g
=2
4.a}
{8d
16d
16e
16f#
16g
=3
4a
8.a
16a
8g
8a
=4
4.b}
{8g
8g
8b
=5
8b
8a
4cc
8a
8ee
=6
4.dd}
{8g
8g
8b
=7
8b
8a
4cc
4f#
=8
4g
8r}
==
!!!AGN: Ballade, Habgier, Mord, Reue, Selbstmord
!!!ONB: ESAC (Essen Associative Code) Database: BALLADE
!!!AMT: simple triple
!!!AIN: vox
!!!EED: Helmut Schaffrath
!!!EEV: 1.0
*-
